src/img/symbol-defs.svg

<svg aria-hidden="true" style="position: absolute; width: 0; height: 0; overflow: hidden;" version="1.1" xmlns="http://www.w3.org/2000/svg" xmlns:xlink="http://www.w3.org/1999/xlink">
<defs>
<symbol id="icon-back-arrow" viewBox="0 0 64 32">
<path fill="#ff6b08" style="fill: var(--color1, #ff6b08)" d="M0.733 17.827l13.067 13.421c0.446 0.463 1.071 0.751 1.763 0.751 0.696 0 1.324-0.291 1.77-0.758l0.001-0.001c0.451-0.473 0.729-1.115 0.729-1.821 0-0.711-0.281-1.356-0.738-1.83l0.001 0.001-8.771-9.008h52.944c1.381 0 2.501-1.157 2.501-2.581s-1.12-2.581-2.501-2.581h-52.941l8.773-9.008c0.454-0.473 0.734-1.117 0.734-1.827 0-0.708-0.279-1.351-0.732-1.825l0.001 0.001c-0.446-0.469-1.075-0.76-1.772-0.76-0.693 0-1.318 0.288-1.763 0.751l-0.001 0.001-13.064 13.421c-0.454 0.473-0.734 1.117-0.734 1.827s0.28 1.353 0.735 1.828l-0.001-0.001z"></path>
</symbol>
<symbol id="icon-bent-arrow" viewBox="0 0 27 32">
<path fill="#ff6b08" style="fill: var(--color1, #ff6b08)" d="M22.907 22.883c-0.061-0.304-0.312-0.448-0.493-0.64-1.315-1.387-2.651-2.765-3.971-4.157-0.56-0.589-0.613-1.221-0.168-1.669 0.443-0.448 1.061-0.408 1.608 0.16 2.107 2.187 4.211 4.381 6.307 6.579 0.643 0.675 0.635 1.147-0.013 1.829-2.080 2.181-4.163 4.357-6.253 6.525-0.576 0.597-1.139 0.643-1.608 0.171-0.467-0.475-0.397-1.085 0.16-1.672 1.301-1.371 2.616-2.733 3.92-4.104 0.184-0.192 0.427-0.339 0.499-0.643-0.205-0.211-0.461-0.112-0.688-0.112-6.869-0.008-13.741-0.011-20.619-0.011-1.301 0-1.579-0.293-1.579-1.653v-21.819c-0.005-0.079-0.009-0.172-0.009-0.265 0-0.174 0.011-0.346 0.032-0.515l-0.002 0.020c0.112-0.56 0.453-0.917 1.016-0.907 0.56 0.011 0.893 0.365 0.997 0.931 0.027 0.227 0.029 0.453 0.016 0.683 0 6.867 0.011 13.733-0.011 20.589 0 0.651 0.176 0.8 0.773 0.797 6.453-0.021 12.912-0.013 19.368-0.016 0.248 0.011 0.507 0.099 0.72-0.101z"></path>
</symbol>
<symbol id="icon-book" viewBox="0 0 41 32">
<path fill="#a6abb9" style="fill: var(--color2, #a6abb9)" d="M37.647 0.941c-2.089-0.659-4.386-0.941-6.588-0.941-3.671 0-7.624 0.753-10.353 2.824-2.729-2.071-6.682-2.824-10.353-2.824s-7.624 0.753-10.353 2.824v27.576c0 0.471 0.471 0.941 0.941 0.941 0.188 0 0.282-0.094 0.471-0.094 2.541-1.224 6.212-2.071 8.941-2.071 3.671 0 7.624 0.753 10.353 2.824 2.541-1.6 7.153-2.824 10.353-2.824 3.106 0 6.306 0.565 8.941 1.976 0.188 0.094 0.282 0.094 0.471 0.094 0.471 0 0.941-0.471 0.941-0.941v-27.482c-1.129-0.847-2.353-1.412-3.765-1.882zM37.647 26.353c-2.071-0.659-4.329-0.941-6.588-0.941-3.2 0-7.812 1.224-10.353 2.824v-21.647c2.541-1.6 7.153-2.824 10.353-2.824 2.259 0 4.518 0.282 6.588 0.941v21.647z"></path>
<path fill="#a6abb9" style="fill: var(--color2, #a6abb9)" d="M31.059 11.294c1.656 0 3.256 0.169 4.706 0.489v-2.861c-1.487-0.282-3.087-0.452-4.706-0.452-3.2 0-6.099 0.546-8.471 1.562v3.125c2.127-1.205 5.082-1.864 8.471-1.864zM22.588 15.040v3.125c2.127-1.205 5.082-1.864 8.471-1.864 1.656 0 3.256 0.169 4.706 0.489v-2.861c-1.487-0.282-3.087-0.452-4.706-0.452-3.2 0-6.099 0.565-8.471 1.562zM31.059 18.504c-3.2 0-6.099 0.546-8.471 1.562v3.125c2.127-1.205 5.082-1.864 8.471-1.864 1.656 0 3.256 0.169 4.706 0.489v-2.861c-1.487-0.301-3.087-0.452-4.706-0.452z"></path>
</symbol>
<symbol id="icon-calendar" viewBox="0 0 32 32">
<path fill="#a6abb9" style="fill: var(--color2, #a6abb9)" d="M28.25 2.5h-1.5v-2.5h-2.5v2.5h-16.501v-2.5h-2.498v2.5h-1.5c-2.071 0.001-3.749 1.679-3.752 3.749v22.001c0 2.067 1.683 3.75 3.75 3.75h24.501c2.070-0.002 3.747-1.68 3.75-3.749v-22.001c-0.002-2.070-1.68-3.748-3.749-3.75h-0zM29.5 28.25c-0.001 0.69-0.56 1.249-1.25 1.25h-24.501c-0.69-0.001-1.249-0.56-1.25-1.25v-16.501h27v16.501zM29.5 9.25h-27v-3c0-0.689 0.561-1.25 1.25-1.25h1.5v2.5h2.5v-2.5h16.501v2.5h2.5v-2.5h1.5c0.689 0 1.25 0.561 1.25 1.25v3z"></path>
<path fill="#a6abb9" style="fill: var(--color2, #a6abb9)" d="M7.251 14.376h-2.502v2.5h2.502v-2.5zM12.25 14.376h-2.5v2.5h2.5v-2.5zM17.25 14.376h-2.5v2.5h2.5v-2.5zM22.249 14.376h-2.5v2.5h2.5v-2.5zM27.251 14.376h-2.502v2.5h2.502v-2.5z"></path>
</symbol>
<symbol id="icon-checkbox" viewBox="0 0 48 32">
<path fill="#ff6b08" style="fill: var(--color1, #ff6b08)" d="M47.8 4.772l-29.76 27.048c-0.126 0.11-0.291 0.176-0.472 0.176s-0.346-0.067-0.473-0.177l0.001 0.001-16.9-15.36c-0.12-0.105-0.195-0.259-0.195-0.43s0.075-0.325 0.194-0.429l0.001-0.001 4.108-3.732c0.126-0.111 0.292-0.178 0.474-0.178s0.348 0.067 0.475 0.179l-0.001-0.001 12.32 11.2 25.176-22.892c0.126-0.11 0.291-0.176 0.472-0.176s0.346 0.067 0.473 0.177l-0.001-0.001 4.108 3.732c0.12 0.105 0.195 0.259 0.195 0.43s-0.075 0.325-0.194 0.429l-0.001 0.001z"></path>
</symbol>
<symbol id="icon-delete" viewBox="0 0 25 32">
<path fill="#a6abb9" style="fill: var(--color2, #a6abb9)" d="M19.556 10.667v17.778h-14.222v-17.778h14.222zM16.889 0h-8.889l-1.778 1.778h-6.222v3.556h24.889v-3.556h-6.222l-1.778-1.778zM23.111 7.111h-21.333v21.333c0 1.956 1.6 3.556 3.556 3.556h14.222c1.956 0 3.556-1.6 3.556-3.556v-21.333z"></path>
</symbol>
<symbol id="icon-flag" viewBox="0 0 28 32">
<path fill="#a6abb9" style="fill: var(--color2, #a6abb9)" d="M13.854 3.765l0.753 3.765h9.864v11.294h-6.325l-0.753-3.765h-13.628v-11.294h10.089zM16.941 0h-16.941v32h3.765v-13.176h10.541l0.753 3.765h13.176v-18.824h-10.541l-0.753-3.765z"></path>
</symbol>
<symbol id="icon-good" viewBox="0 0 35 32">
<path fill="#a6abb9" style="fill: var(--color2, #a6abb9)" d="M12.696 31.478h14.087c0.003 0 0.007 0 0.011 0 1.284 0 2.387-0.779 2.861-1.889l0.008-0.020 4.727-11.035c0.139-0.338 0.219-0.731 0.219-1.142v-3.13c0-1.722-1.409-3.13-3.13-3.13h-9.877l1.487-7.153 0.047-0.501c0-0.642-0.266-1.237-0.689-1.66l-1.661-1.643-10.313 10.315c-0.561 0.563-0.908 1.339-0.908 2.196 0 0.004 0 0.007 0 0.011v-0.001 15.652c0 1.722 1.409 3.13 3.13 3.13zM12.696 12.696l6.793-6.793-2.097 8.358h14.087v3.13l-4.696 10.957h-14.087v-15.652zM0.174 12.696h6.261v18.783h-6.261v-18.783z"></path>
</symbol>
<symbol id="icon-home" viewBox="0 0 38 32">
<path fill="#a6abb9" style="fill: var(--color2, #a6abb9)" d="M18.824 5.064l9.412 8.471v14.701h-3.765v-11.294h-11.294v11.294h-3.765v-14.701l9.412-8.471zM18.824 0l-18.824 16.941h5.647v15.059h11.294v-11.294h3.765v11.294h11.294v-15.059h5.647l-18.824-16.941z"></path>
</symbol>
<symbol id="icon-plus" viewBox="0 0 32 32">
<path fill="#fff" style="fill: var(--color3, #fff)" d="M30.4 14.4h-12.8v-12.8c0-0.884-0.716-1.6-1.6-1.6s-1.6 0.716-1.6 1.6v0 12.8h-12.8c-0.884 0-1.6 0.716-1.6 1.6s0.716 1.6 1.6 1.6v0h12.8v12.8c0 0.884 0.716 1.6 1.6 1.6s1.6-0.716 1.6-1.6v0-12.8h12.8c0.884 0 1.6-0.716 1.6-1.6s-0.716-1.6-1.6-1.6v0z"></path>
</symbol>
<symbol id="icon-polygon" viewBox="0 0 69 32">
<path d="M34.667 32l-30.027-28h60.053l-30.027 28z"></path>
</symbol>
<symbol id="icon-rating-stars" viewBox="0 0 190 32">
<path fill="none" stroke="#a6abb9" style="stroke: var(--color2, #a6abb9)" stroke-linejoin="miter" stroke-linecap="butt" stroke-miterlimit="4" stroke-width="1.8824" d="M16 3.046l2.908 8.951h9.412l-7.614 5.532 0.211 0.651 2.697 8.301-7.614-5.532-0.553 0.401-7.061 5.131 2.908-8.952-0.553-0.399-7.061-5.133h9.412l0.211-0.649 2.697-8.301zM55.529 3.046l2.908 8.951h9.412l-7.614 5.532 0.211 0.651 2.697 8.301-7.614-5.532-0.553 0.401-7.061 5.131 2.908-8.952-0.553-0.401-7.061-5.131h9.412l0.211-0.649 2.697-8.301zM95.059 3.046l2.908 8.951h9.412l-7.614 5.532 0.211 0.651 2.697 8.301-7.614-5.532-0.553 0.401-7.061 5.131 2.908-8.952-0.553-0.401-7.061-5.131h9.412l0.211-0.649 2.697-8.301zM134.588 3.046l2.908 8.951h9.412l-7.614 5.532 0.211 0.651 2.697 8.301-7.614-5.532-0.553 0.401-7.061 5.131 2.908-8.952-0.553-0.401-7.061-5.131h9.412l0.211-0.649 2.697-8.301zM174.118 3.046l2.908 8.951h9.412l-7.614 5.532 0.211 0.651 2.697 8.301-7.614-5.532-0.553 0.401-7.061 5.131 2.908-8.952-0.553-0.401-7.061-5.131h9.412l0.211-0.649 2.697-8.301z"></path>
</symbol>
<symbol id="icon-star" viewBox="0 0 34 32">
<path fill="none" stroke="#a6abb9" style="stroke: var(--color2, #a6abb9)" stroke-linejoin="miter" stroke-linecap="butt" stroke-miterlimit="4" stroke-width="2" d="M17 3.236l3.090 9.51h10l-8.090 5.878 0.224 0.692 2.866 8.82-8.090-5.878-0.588 0.426-7.502 5.452 3.090-9.512-0.588-0.424-7.502-5.454h10l0.224-0.69 2.866-8.82z"></path>
</symbol>
<symbol id="icon-vector" viewBox="0 0 16 32">
<path fill="#ff6b08" style="fill: var(--color1, #ff6b08)" d="M15.664 15.12l-13.704-14.76c-0.2-0.223-0.489-0.362-0.81-0.362-0.323 0-0.614 0.141-0.813 0.365l-0.001 0.001c-0.209 0.232-0.337 0.54-0.337 0.878s0.128 0.647 0.338 0.879l-0.001-0.001 12.888 13.88-12.888 13.88c-0.209 0.232-0.337 0.54-0.337 0.878s0.128 0.646 0.338 0.879l-0.001-0.001c0.224 0.24 0.52 0.364 0.812 0.364 0.296 0 0.588-0.12 0.812-0.36l13.704-14.76c0.208-0.229 0.336-0.534 0.336-0.869 0-0.004-0-0.008-0-0.011v0.001c0-0.003 0-0.007 0-0.011 0-0.335-0.128-0.641-0.337-0.87l0.001 0.001z"></path>
</symbol>
</defs>
</svg>

<svg aria-hidden="true" style="position:absolute;width:0;height:0;overflow:hidden" xmlns="http://www.w3.org/2000/svg"><defs><symbol id="icon-back-arrow" viewBox="0 0 64 32"><path fill="#ff6b08" style="fill:var(--color1, #ff6b08)" d="M.733 17.827 13.8 31.248a2.44 2.44 0 0 0 1.763.751 2.44 2.44 0 0 0 1.77-.758l.001-.001a2.632 2.632 0 0 0 .729-1.821c0-.711-.281-1.356-.738-1.83l.001.001-8.771-9.008h52.944c1.381 0 2.501-1.157 2.501-2.581s-1.12-2.581-2.501-2.581H8.558l8.773-9.008a2.63 2.63 0 0 0 .734-1.827c0-.708-.279-1.351-.732-1.825l.001.001a2.437 2.437 0 0 0-1.772-.76c-.693 0-1.318.288-1.763.751l-.001.001L.734 14.174C.28 14.647 0 15.291 0 16.001s.28 1.353.735 1.828l-.001-.001z"/></symbol><symbol id="icon-bent-arrow" viewBox="0 0 27 32"><path fill="#ff6b08" style="fill:var(--color1, #ff6b08)" d="M22.907 22.883c-.061-.304-.312-.448-.493-.64-1.315-1.387-2.651-2.765-3.971-4.157-.56-.589-.613-1.221-.168-1.669.443-.448 1.061-.408 1.608.16 2.107 2.187 4.211 4.381 6.307 6.579.643.675.635 1.147-.013 1.829-2.08 2.181-4.163 4.357-6.253 6.525-.576.597-1.139.643-1.608.171-.467-.475-.397-1.085.16-1.672 1.301-1.371 2.616-2.733 3.92-4.104.184-.192.427-.339.499-.643-.205-.211-.461-.112-.688-.112-6.869-.008-13.741-.011-20.619-.011-1.301 0-1.579-.293-1.579-1.653V1.667a4.277 4.277 0 0 1 .023-.78L.03.907C.142.347.483-.01 1.046 0c.56.011.893.365.997.931.027.227.029.453.016.683 0 6.867.011 13.733-.011 20.589 0 .651.176.8.773.797 6.453-.021 12.912-.013 19.368-.016.248.011.507.099.72-.101z"/></symbol><symbol id="icon-book" viewBox="0 0 41 32"><path fill="#a6abb9" style="fill:var(--color2, #a6abb9)" d="M37.647.941C35.558.282 33.261 0 31.059 0c-3.671 0-7.624.753-10.353 2.824C17.977.753 14.024 0 10.353 0S2.729.753 0 2.824V30.4c0 .471.471.941.941.941.188 0 .282-.094.471-.094 2.541-1.224 6.212-2.071 8.941-2.071 3.671 0 7.624.753 10.353 2.824 2.541-1.6 7.153-2.824 10.353-2.824 3.106 0 6.306.565 8.941 1.976.188.094.282.094.471.094.471 0 .941-.471.941-.941V2.823c-1.129-.847-2.353-1.412-3.765-1.882zm0 25.412c-2.071-.659-4.329-.941-6.588-.941-3.2 0-7.812 1.224-10.353 2.824V6.589c2.541-1.6 7.153-2.824 10.353-2.824 2.259 0 4.518.282 6.588.941v21.647z"/><path fill="#a6abb9" style="fill:var(--color2, #a6abb9)" d="M31.059 11.294c1.656 0 3.256.169 4.706.489V8.922a25.447 25.447 0 0 0-4.706-.452c-3.2 0-6.099.546-8.471 1.562v3.125c2.127-1.205 5.082-1.864 8.471-1.864zm-8.471 3.746v3.125c2.127-1.205 5.082-1.864 8.471-1.864 1.656 0 3.256.169 4.706.489v-2.861a25.447 25.447 0 0 0-4.706-.452c-3.2 0-6.099.565-8.471 1.562zm8.471 3.464c-3.2 0-6.099.546-8.471 1.562v3.125c2.127-1.205 5.082-1.864 8.471-1.864 1.656 0 3.256.169 4.706.489v-2.861a23.913 23.913 0 0 0-4.706-.452z"/></symbol><symbol id="icon-calendar" viewBox="0 0 32 32"><path fill="#a6abb9" style="fill:var(--color2, #a6abb9)" d="M28.25 2.5h-1.5V0h-2.5v2.5H7.749V0H5.251v2.5h-1.5A3.754 3.754 0 0 0-.001 6.249V28.25A3.755 3.755 0 0 0 3.749 32H28.25A3.754 3.754 0 0 0 32 28.251V6.25a3.754 3.754 0 0 0-3.749-3.75zm1.25 25.75a1.252 1.252 0 0 1-1.25 1.25H3.749a1.252 1.252 0 0 1-1.25-1.25V11.749h27V28.25zm0-19h-27v-3C2.5 5.561 3.061 5 3.75 5h1.5v2.5h2.5V5h16.501v2.5h2.5V5h1.5c.689 0 1.25.561 1.25 1.25v3z"/><path fill="#a6abb9" style="fill:var(--color2, #a6abb9)" d="M7.251 14.376H4.749v2.5h2.502v-2.5zm4.999 0h-2.5v2.5h2.5v-2.5zm5 0h-2.5v2.5h2.5v-2.5zm4.999 0h-2.5v2.5h2.5v-2.5zm5.002 0h-2.502v2.5h2.502v-2.5z"/></symbol><symbol id="icon-checkbox" viewBox="0 0 48 32"><path fill="#ff6b08" style="fill:var(--color1, #ff6b08)" d="M47.8 4.772 18.04 31.82a.72.72 0 0 1-.945-.001l.001.001-16.9-15.36a.57.57 0 0 1-.001-.859l.001-.001 4.108-3.732c.126-.111.292-.178.474-.178s.348.067.475.179l-.001-.001 12.32 11.2L42.748.176a.72.72 0 0 1 .945.001l-.001-.001L47.8 3.908a.57.57 0 0 1 .001.859l-.001.001z"/></symbol><symbol id="icon-delete" viewBox="0 0 25 32"><path fill="#a6abb9" style="fill:var(--color2, #a6abb9)" d="M19.556 10.667v17.778H5.334V10.667h14.222zM16.889 0H8L6.222 1.778H0v3.556h24.889V1.778h-6.222L16.889 0zm6.222 7.111H1.778v21.333C1.778 30.4 3.378 32 5.334 32h14.222c1.956 0 3.556-1.6 3.556-3.556V7.111z"/></symbol><symbol id="icon-flag" viewBox="0 0 28 32"><path fill="#a6abb9" style="fill:var(--color2, #a6abb9)" d="m13.854 3.765.753 3.765h9.864v11.294h-6.325l-.753-3.765H3.765V3.765h10.089zM16.941 0H0v32h3.765V18.824h10.541l.753 3.765h13.176V3.765H17.694L16.941 0z"/></symbol><symbol id="icon-good" viewBox="0 0 35 32"><path fill="#a6abb9" style="fill:var(--color2, #a6abb9)" d="M12.696 31.478H26.794a3.111 3.111 0 0 0 2.861-1.889l.008-.02 4.727-11.035c.139-.338.219-.731.219-1.142v-3.13a3.14 3.14 0 0 0-3.13-3.13h-9.877l1.487-7.153.047-.501c0-.642-.266-1.237-.689-1.66L20.786.175 10.473 10.49a3.101 3.101 0 0 0-.908 2.196v.011-.001 15.652a3.14 3.14 0 0 0 3.13 3.13zm0-18.782 6.793-6.793-2.097 8.358h14.087v3.13l-4.696 10.957H12.696V12.696zm-12.522 0h6.261v18.783H.174V12.696z"/></symbol><symbol id="icon-home" viewBox="0 0 38 32"><path fill="#a6abb9" style="fill:var(--color2, #a6abb9)" d="m18.824 5.064 9.412 8.471v14.701h-3.765V16.942H13.177v11.294H9.412V13.535l9.412-8.471zm0-5.064L0 16.941h5.647V32h11.294V20.706h3.765V32H32V16.941h5.647L18.823 0z"/></symbol><symbol id="icon-plus" viewBox="0 0 32 32"><path fill="#fff" style="fill:var(--color3, #fff)" d="M30.4 14.4H17.6V1.6a1.6 1.6 0 1 0-3.2 0v12.8H1.6a1.6 1.6 0 1 0 0 3.2h12.8v12.8a1.6 1.6 0 1 0 3.2 0V17.6h12.8a1.6 1.6 0 1 0 0-3.2z"/></symbol><symbol id="icon-polygon" viewBox="0 0 69 32"><path d="M34.667 32 4.64 4h60.053L34.666 32z"/></symbol><symbol id="icon-rating-stars" viewBox="0 0 190 32"><path fill="none" stroke="#a6abb9" style="stroke:var(--color2, #a6abb9)" stroke-width="1.882" d="m16 3.046 2.908 8.951h9.412l-7.614 5.532.211.651 2.697 8.301L16 20.949l-.553.401-7.061 5.131 2.908-8.952-.553-.399-7.061-5.133h9.412l.211-.649L16 3.047zm39.529 0 2.908 8.951h9.412l-7.614 5.532.211.651 2.697 8.301-7.614-5.532-.553.401-7.061 5.131 2.908-8.952-.553-.401-7.061-5.131h9.412l.211-.649 2.697-8.301zm39.53 0 2.908 8.951h9.412l-7.614 5.532.211.651 2.697 8.301-7.614-5.532-.553.401-7.061 5.131 2.908-8.952-.553-.401-7.061-5.131h9.412l.211-.649 2.697-8.301zm39.529 0 2.908 8.951h9.412l-7.614 5.532.211.651 2.697 8.301-7.614-5.532-.553.401-7.061 5.131 2.908-8.952-.553-.401-7.061-5.131h9.412l.211-.649 2.697-8.301zm39.53 0 2.908 8.951h9.412l-7.614 5.532.211.651 2.697 8.301-7.614-5.532-.553.401-7.061 5.131 2.908-8.952-.553-.401-7.061-5.131h9.412l.211-.649 2.697-8.301z"/></symbol><symbol id="icon-star" viewBox="0 0 34 32"><path fill="none" stroke="#a6abb9" style="stroke:var(--color2, #a6abb9)" stroke-width="2" d="m17 3.236 3.09 9.51h10L22 18.624l.224.692 2.866 8.82L17 22.258l-.588.426-7.502 5.452L12 18.624l-.588-.424-7.502-5.454h10l.224-.69L17 3.236z"/></symbol><symbol id="icon-vector" viewBox="0 0 16 32"><path fill="#ff6b08" style="fill:var(--color1, #ff6b08)" d="M15.664 15.12 1.96.36A1.084 1.084 0 0 0 .337.363L.336.364a1.308 1.308 0 0 0 .001 1.757L.336 2.12 13.224 16 .336 29.88a1.308 1.308 0 0 0 .001 1.757l-.001-.001c.224.24.52.364.812.364.296 0 .588-.12.812-.36l13.704-14.76a1.29 1.29 0 0 0 .336-.869V16v.001-.011c0-.335-.128-.641-.337-.87l.001.001z"/></symbol></defs></svg>
